; generated by Slic3r 1.3.1-dev on 2019-01-06 at 18:26:02

; external perimeters extrusion width = 0.44mm (3.38mm^3/s)
; perimeters extrusion width = 0.48mm (7.54mm^3/s)
; infill extrusion width = 0.48mm (10.05mm^3/s)
; solid infill extrusion width = 0.48mm (2.51mm^3/s)
; top infill extrusion width = 0.48mm (1.88mm^3/s)
; support material extrusion width = 0.44mm (6.76mm^3/s)

M190 S105 ; set bed temperature and wait for it to be reached
M104 S235 ; set temperature
G28 ; home all axes
G1 Z5 F5000 ; lift nozzle
M106 S0

; Filament gcode

M109 S235 ; set temperature and wait for it to be reached
G21 ; set units to millimeters
G90 ; use absolute coordinates
M82 ; use absolute distances for extrusion
G92 E0
G92 E0
G1 E-4.00000 F2400.00000
G92 E0
G1 Z0.300 F7800.000
G1 X110.004 Y110.787 F7800.000
G1 E4.00000 F2400.00000
G1 F1800
G1 X111.753 Y109.328 E4.15217
G1 X115.000 Y108.464 E4.37660
G1 X135.000 Y108.464 E5.71271
G1 X137.243 Y108.861 E5.86488
G1 X139.213 Y110.004 E6.01705
G1 X140.672 Y111.753 E6.16922
G1 X141.536 Y115.000 E6.39365
G1 X141.536 Y135.000 E7.72976
G1 X141.139 Y137.243 E7.88193
G1 X139.996 Y139.213 E8.03410
G1 X138.247 Y140.672 E8.18627
G1 X135.000 Y141.536 E8.41070
G1 X115.000 Y141.536 E9.74681
G1 X112.757 Y141.139 E9.89898
G1 X110.787 Y139.996 E10.05115
G1 X109.328 Y138.247 E10.20332
G1 X108.464 Y135.000 E10.42775
G1 X108.464 Y115.000 E11.76386
G1 X108.861 Y112.757 E11.91603
G1 X109.974 Y110.838 E12.06420
G1 F6240
G1 X111.753 Y109.328 E11.21129
G1 F6240
G1 X115.000 Y108.464 E9.98380
G1 F6240
G1 X119.706 Y108.464 E8.26420
G1 E8.06420 F2400.00000
G92 E0
G1 X133.629 Y133.629 F7800.000
G1 E4.00000 F2400.00000
G1 F1800
G1 X116.371 Y133.629 E5.15290
G1 X116.371 Y116.371 E6.30579
G1 X133.629 Y116.371 E7.45869
G1 X133.629 Y133.569 E8.60758
G1 X134.164 Y134.164 F7800.000
G1 F1800
G1 X115.836 Y134.164 E9.83204
G1 X115.836 Y115.836 E11.05650
G1 X134.164 Y115.836 E12.28096
G1 X134.164 Y134.104 E13.50141
G1 X134.700 Y134.700 F7800.000
G1 F1800
G1 X115.300 Y134.700 E14.79743
G1 X115.300 Y115.300 E16.09346
G1 X134.700 Y115.300 E17.38948
G1 X134.700 Y134.640 E18.68150
G1 X134.314 Y134.596 F7800.000
G1 F6240
G1 X124.300 Y134.672 E14.88150
G1 E14.68150 F2400.00000
G92 E0
G1 X132.885 Y133.301 F7800.000
G1 E4.00000 F2400.00000
G1 F1800
G1 X133.301 Y132.885 E4.04006
G1 X133.301 Y132.114 E4.09246
G1 X132.114 Y133.301 E4.20662
G1 X131.343 Y133.301 E4.25902
G1 X133.301 Y131.343 E4.44728
G1 X133.301 Y130.572 E4.49967
G1 X130.572 Y133.301 E4.76203
G1 X129.802 Y133.301 E4.81443
G1 X133.301 Y129.802 E5.15088
G1 X133.301 Y129.031 E5.20328
G1 X129.031 Y133.301 E5.61383
G1 X128.260 Y133.301 E5.66622
G1 X133.301 Y128.260 E6.15088
G1 X133.301 Y127.489 E6.20327
G1 X127.489 Y133.301 E6.76202
G1 X126.719 Y133.301 E6.81442
G1 X133.301 Y126.719 E7.44726
G1 X133.301 Y125.948 E7.49966
G1 X125.948 Y133.301 E8.20660
G1 X125.177 Y133.301 E8.25900
G1 X133.301 Y125.177 E9.04004
G1 X133.301 Y124.406 E9.09243
G1 X124.406 Y133.301 E9.94758
G1 X123.635 Y133.301 E9.99997
G1 X133.301 Y123.635 E10.92921
G1 X133.301 Y122.865 E10.98160
G1 X122.865 Y133.301 E11.98494
G1 X122.094 Y133.301 E12.03734
G1 X133.301 Y122.094 E13.11477
G1 X133.301 Y121.323 E13.16716
G1 X121.323 Y133.301 E14.31870
G1 X120.552 Y133.301 E14.37109
G1 X133.301 Y120.552 E15.59672
G1 X133.301 Y119.782 E15.64912
G1 X119.782 Y133.301 E16.94884
G1 X119.011 Y133.301 E17.00124
G1 X133.301 Y119.011 E18.37506
G1 X133.301 Y118.240 E18.42746
G1 X118.240 Y133.301 E19.87538
G1 X117.469 Y133.301 E19.92778
G1 X133.301 Y117.469 E21.44980
G1 X133.301 Y116.699 E21.50219
G1 X116.699 Y133.301 E23.09831
G1 X116.699 Y132.531 E23.15071
G1 X132.531 Y116.699 E24.67273
G1 X131.760 Y116.699 E24.72512
G1 X116.699 Y131.760 E26.17305
G1 X116.699 Y130.989 E26.22544
G1 X130.989 Y116.699 E27.59927
G1 X130.218 Y116.699 E27.65166
G1 X116.699 Y130.218 E28.95139
G1 X116.699 Y129.448 E29.00379
G1 X129.448 Y116.699 E30.22942
G1 X128.677 Y116.699 E30.28181
G1 X116.699 Y128.677 E31.43335
G1 X116.699 Y127.906 E31.48574
G1 X127.906 Y116.699 E32.56318
G1 X127.135 Y116.699 E32.61557
G1 X116.699 Y127.135 E33.61891
G1 X116.699 Y126.365 E33.67130
G1 X126.365 Y116.699 E34.60054
G1 X125.594 Y116.699 E34.65294
G1 X116.699 Y125.594 E35.50808
G1 X116.699 Y124.823 E35.56048
G1 X124.823 Y116.699 E36.34152
G1 X124.052 Y116.699 E36.39392
G1 X116.699 Y124.052 E37.10086
G1 X116.699 Y123.281 E37.15326
G1 X123.281 Y116.699 E37.78610
G1 X122.511 Y116.699 E37.83850
G1 X116.699 Y122.511 E38.39725
G1 X116.699 Y121.740 E38.44965
G1 X121.740 Y116.699 E38.93430
G1 X120.969 Y116.699 E38.98669
G1 X116.699 Y120.969 E39.39725
G1 X116.699 Y120.198 E39.44964
G1 X120.198 Y116.699 E39.78610
G1 X119.428 Y116.699 E39.83850
G1 X116.699 Y119.428 E40.10086
G1 X116.699 Y118.657 E40.15325
G1 X118.657 Y116.699 E40.34151
G1 X117.886 Y116.699 E40.39391
G1 X116.699 Y117.886 E40.50807
G1 X116.699 Y117.115 E40.56047
G1 X117.115 Y116.699 E40.60053
G1 F6240
G1 X116.699 Y117.115 E40.38517
G1 F6240
G1 X116.699 Y117.886 E40.10355
G1 F6240
G1 X117.886 Y116.699 E39.48991
G1 F6240
G1 X118.657 Y116.699 E39.20828
G1 F6240
G1 X116.699 Y118.657 E38.19636
G1 F6240
G1 X116.699 Y119.428 E37.91473
G1 F6240
G1 X118.855 Y117.271 E36.80053
G1 E36.60053 F2400.00000
G92 E0
G1 Z0.300 F7800.000
G1 Z0.600 F7800.000
G1 X133.964 Y133.964 F7800.000
G1 E4.00000 F2400.00000
G1 F3600
G1 X116.036 Y133.964 E4.93663
G1 X116.036 Y116.036 E5.87327
G1 X133.964 Y116.036 E6.80990
G1 X133.964 Y133.904 E7.74340
G1 X134.383 Y134.383 F7800.000
G1 F3600
G1 X115.617 Y134.383 E8.72380
G1 X115.617 Y115.617 E9.70420
G1 X134.383 Y115.617 E10.68460
G1 X134.383 Y134.323 E11.66187
G1 X134.780 Y134.780 F7800.000
G1 F1800
G1 X115.220 Y134.780 E12.57824
G1 X115.220 Y115.220 E13.49462
G1 X134.780 Y115.220 E14.41099
G1 X134.780 Y134.720 E15.32455
G1 X134.394 Y134.676 F7800.000
G1 X133.708 Y116.618 F7800.000
G1 F1200
G1 X133.382 Y116.292 E15.34893
G1 X132.782 Y116.292 E15.38064
G1 X133.708 Y117.218 E15.44987
G1 X133.708 Y117.817 E15.48158
G1 X132.183 Y116.292 E15.59566
G1 X131.583 Y116.292 E15.62737
G1 X133.708 Y118.417 E15.78629
G1 X133.708 Y119.017 E15.81800
G1 X130.983 Y116.292 E16.02177
G1 X130.384 Y116.292 E16.05349
G1 X133.708 Y119.616 E16.30210
G1 X133.708 Y120.216 E16.33382
G1 X129.784 Y116.292 E16.62728
G1 X129.184 Y116.292 E16.65900
G1 X133.708 Y120.816 E16.99731
G1 X133.708 Y121.415 E17.02902
G1 X128.585 Y116.292 E17.41219
G1 X127.985 Y116.292 E17.44390
G1 X133.708 Y122.015 E17.87191
G1 X133.708 Y122.614 E17.90362
G1 X127.386 Y116.292 E18.37648
G1 X126.786 Y116.292 E18.40819
G1 X133.708 Y123.214 E18.92590
G1 X133.708 Y123.814 E18.95761
G1 X126.186 Y116.292 E19.52017
G1 X125.587 Y116.292 E19.55188
G1 X133.708 Y124.413 E20.15928
G1 X133.708 Y125.013 E20.19100
G1 X124.987 Y116.292 E20.84325
G1 X124.387 Y116.292 E20.87496
G1 X133.708 Y125.613 E21.57206
G1 X133.708 Y126.212 E21.60377
G1 X123.788 Y116.292 E22.34572
G1 X123.188 Y116.292 E22.37743
G1 X133.708 Y126.812 E23.16423
G1 X133.708 Y127.412 E23.19594
G1 X122.588 Y116.292 E24.02758
G1 X121.989 Y116.292 E24.05929
G1 X133.708 Y128.011 E24.93578
G1 X133.708 Y128.611 E24.96750
G1 X121.389 Y116.292 E25.88884
G1 X120.789 Y116.292 E25.92055
G1 X133.708 Y129.211 E26.88674
G1 X133.708 Y129.810 E26.91845
G1 X120.190 Y116.292 E27.92948
G1 X119.590 Y116.292 E27.96120
G1 X133.708 Y130.410 E29.01708
G1 X133.708 Y131.010 E29.04879
G1 X118.990 Y116.292 E30.14952
G1 X118.391 Y116.292 E30.18124
G1 X133.708 Y131.609 E31.32682
G1 X133.708 Y132.209 E31.35853
G1 X117.791 Y116.292 E32.54896
G1 X117.192 Y116.292 E32.58067
G1 X133.708 Y132.808 E33.81595
G1 X133.708 Y133.408 E33.84766
G1 X116.592 Y116.292 E35.12778
G1 X116.292 Y116.292 E35.14364
G1 X116.292 Y116.592 E35.15949
G1 X133.408 Y133.708 E36.43962
G1 X132.808 Y133.708 E36.47133
G1 X116.292 Y117.192 E37.70661
G1 X116.292 Y117.791 E37.73832
G1 X132.209 Y133.708 E38.92875
G1 X131.609 Y133.708 E38.96046
G1 X116.292 Y118.391 E40.10604
G1 X116.292 Y118.990 E40.13776
G1 X131.010 Y133.708 E41.23849
G1 X130.410 Y133.708 E41.27020
G1 X116.292 Y119.590 E42.32609
G1 X116.292 Y120.190 E42.35780
G1 X129.810 Y133.708 E43.36883
G1 X129.211 Y133.708 E43.40055
G1 X116.292 Y120.789 E44.36674
G1 X116.292 Y121.389 E44.39845
G1 X128.611 Y133.708 E45.31979
G1 X128.011 Y133.708 E45.35150
G1 X116.292 Y121.989 E46.22799
G1 X116.292 Y122.588 E46.25971
G1 X127.412 Y133.708 E47.09135
G1 X126.812 Y133.708 E47.12306
G1 X116.292 Y123.188 E47.90986
G1 X116.292 Y123.788 E47.94157
G1 X126.212 Y133.708 E48.68352
G1 X125.613 Y133.708 E48.71523
G1 X116.292 Y124.387 E49.41233
G1 X116.292 Y124.987 E49.44405
G1 X125.013 Y133.708 E50.09630
G1 X124.413 Y133.708 E50.12801
G1 X116.292 Y125.587 E50.73541
G1 X116.292 Y126.186 E50.76713
G1 X123.814 Y133.708 E51.32968
G1 X123.214 Y133.708 E51.36140
G1 X116.292 Y126.786 E51.87910
G1 X116.292 Y127.386 E51.91082
G1 X122.614 Y133.708 E52.38368
G1 X122.015 Y133.708 E52.41539
G1 X116.292 Y127.985 E52.84340
G1 X116.292 Y128.585 E52.87511
G1 X121.415 Y133.708 E53.25828
G1 X120.816 Y133.708 E53.28999
G1 X116.292 Y129.184 E53.62830
G1 X116.292 Y129.784 E53.66002
G1 X120.216 Y133.708 E53.95349
G1 X119.616 Y133.708 E53.98520
G1 X116.292 Y130.384 E54.23382
G1 X116.292 Y130.983 E54.26553
G1 X119.017 Y133.708 E54.46930
G1 X118.417 Y133.708 E54.50101
G1 X116.292 Y131.583 E54.65994
G1 X116.292 Y132.183 E54.69165
G1 X117.817 Y133.708 E54.80573
G1 X117.218 Y133.708 E54.83744
G1 X116.292 Y132.782 E54.90667
G1 X116.292 Y133.382 E54.93838
G1 X116.618 Y133.708 E54.96275
G1 F6240
G1 X116.292 Y133.382 E54.79439
G1 F6240
G1 X116.292 Y132.782 E54.57529
G1 F6240
G1 X117.218 Y133.708 E54.09699
G1 F6240
G1 X117.817 Y133.708 E53.87789
G1 F6240
G1 X116.292 Y132.183 E53.08974
G1 F6240
G1 X116.292 Y131.583 E52.87064
G1 F6240
G1 X118.417 Y133.708 E51.77264
G1 F6240
G1 X119.017 Y133.708 E51.55353
G1 F6240
G1 X118.260 Y132.952 E51.16275
G1 E50.96275 F2400.00000
G92 E0
G1 Z0.900 F7800.000
G1 X133.964 Y133.964 F7800.000
G1 E4.00000 F2400.00000
G1 F3600
G1 X116.036 Y133.964 E4.93663
G1 X116.036 Y116.036 E5.87327
G1 X133.964 Y116.036 E6.80990
G1 X133.964 Y133.904 E7.74340
G1 X134.383 Y134.383 F7800.000
G1 F3600
G1 X115.617 Y134.383 E8.72380
G1 X115.617 Y115.617 E9.70420
G1 X134.383 Y115.617 E10.68460
G1 X134.383 Y134.323 E11.66187
G1 X134.780 Y134.780 F7800.000
G1 F1800
G1 X115.220 Y134.780 E12.57824
G1 X115.220 Y115.220 E13.49462
G1 X134.780 Y115.220 E14.41099
G1 X134.780 Y134.720 E15.32455
G1 X134.394 Y134.676 F7800.000
G1 X133.382 Y133.708 F7800.000
G1 F1200
G1 X133.708 Y133.382 E15.34893
G1 X133.708 Y132.782 E15.38064
G1 X132.782 Y133.708 E15.44987
G1 X132.183 Y133.708 E15.48158
G1 X133.708 Y132.183 E15.59566
G1 X133.708 Y131.583 E15.62737
G1 X131.583 Y133.708 E15.78629
G1 X130.983 Y133.708 E15.81800
G1 X133.708 Y130.983 E16.02177
G1 X133.708 Y130.384 E16.05349
G1 X130.384 Y133.708 E16.30210
G1 X129.784 Y133.708 E16.33382
G1 X133.708 Y129.784 E16.62728
G1 X133.708 Y129.184 E16.65900
G1 X129.184 Y133.708 E16.99731
G1 X128.585 Y133.708 E17.02902
G1 X133.708 Y128.585 E17.41219
G1 X133.708 Y127.985 E17.44390
G1 X127.985 Y133.708 E17.87191
G1 X127.386 Y133.708 E17.90362
G1 X133.708 Y127.386 E18.37648
G1 X133.708 Y126.786 E18.40819
G1 X126.786 Y133.708 E18.92590
G1 X126.186 Y133.708 E18.95761
G1 X133.708 Y126.186 E19.52017
G1 X133.708 Y125.587 E19.55188
G1 X125.587 Y133.708 E20.15928
G1 X124.987 Y133.708 E20.19099
G1 X133.708 Y124.987 E20.84324
G1 X133.708 Y124.387 E20.87496
G1 X124.387 Y133.708 E21.57206
G1 X123.788 Y133.708 E21.60377
G1 X133.708 Y123.788 E22.34572
G1 X133.708 Y123.188 E22.37743
G1 X123.188 Y133.708 E23.16422
G1 X122.588 Y133.708 E23.19594
G1 X133.708 Y122.588 E24.02758
G1 X133.708 Y121.989 E24.05929
G1 X121.989 Y133.708 E24.93578
G1 X121.389 Y133.708 E24.96749
G1 X133.708 Y121.389 E25.88883
G1 X133.708 Y120.789 E25.92055
G1 X120.789 Y133.708 E26.88673
G1 X120.190 Y133.708 E26.91845
G1 X133.708 Y120.190 E27.92948
G1 X133.708 Y119.590 E27.96119
G1 X119.590 Y133.708 E29.01708
G1 X118.990 Y133.708 E29.04879
G1 X133.708 Y118.990 E30.14952
G1 X133.708 Y118.391 E30.18123
G1 X118.391 Y133.708 E31.32681
G1 X117.791 Y133.708 E31.35853
G1 X133.708 Y117.791 E32.54895
G1 X133.708 Y117.192 E32.58067
G1 X117.192 Y133.708 E33.81594
G1 X116.592 Y133.708 E33.84765
G1 X133.708 Y116.592 E35.12778
G1 X133.708 Y116.292 E35.14363
G1 X133.408 Y116.292 E35.15949
G1 X116.292 Y133.408 E36.43962
G1 X116.292 Y132.808 E36.47133
G1 X132.808 Y116.292 E37.70660
G1 X132.209 Y116.292 E37.73832
G1 X116.292 Y132.209 E38.92875
G1 X116.292 Y131.609 E38.96046
G1 X131.609 Y116.292 E40.10604
G1 X131.010 Y116.292 E40.13775
G1 X116.292 Y131.010 E41.23848
G1 X116.292 Y130.410 E41.27020
G1 X130.410 Y116.292 E42.32608
G1 X129.810 Y116.292 E42.35779
G1 X116.292 Y129.810 E43.36883
G1 X116.292 Y129.211 E43.40054
G1 X129.211 Y116.292 E44.36673
G1 X128.611 Y116.292 E44.39844
G1 X116.292 Y128.611 E45.31978
G1 X116.292 Y128.011 E45.35150
G1 X128.011 Y116.292 E46.22799
G1 X127.412 Y116.292 E46.25970
G1 X116.292 Y127.412 E47.09135
G1 X116.292 Y126.812 E47.12306
G1 X126.812 Y116.292 E47.90985
G1 X126.212 Y116.292 E47.94157
G1 X116.292 Y126.212 E48.68352
G1 X116.292 Y125.613 E48.71523
G1 X125.613 Y116.292 E49.41233
G1 X125.013 Y116.292 E49.44404
G1 X116.292 Y125.013 E50.09629
G1 X116.292 Y124.413 E50.12800
G1 X124.413 Y116.292 E50.73541
G1 X123.814 Y116.292 E50.76712
G1 X116.292 Y123.814 E51.32968
G1 X116.292 Y123.214 E51.36139
G1 X123.214 Y116.292 E51.87910
G1 X122.614 Y116.292 E51.91081
G1 X116.292 Y122.614 E52.38367
G1 X116.292 Y122.015 E52.41538
G1 X122.015 Y116.292 E52.84339
G1 X121.415 Y116.292 E52.87511
G1 X116.292 Y121.415 E53.25827
G1 X116.292 Y120.816 E53.28998
G1 X120.816 Y116.292 E53.62830
G1 X120.216 Y116.292 E53.66001
G1 X116.292 Y120.216 E53.95348
G1 X116.292 Y119.616 E53.98519
G1 X119.616 Y116.292 E54.23381
G1 X119.017 Y116.292 E54.26552
G1 X116.292 Y119.017 E54.46929
G1 X116.292 Y118.417 E54.50101
G1 X118.417 Y116.292 E54.65993
G1 X117.817 Y116.292 E54.69164
G1 X116.292 Y117.817 E54.80572
G1 X116.292 Y117.218 E54.83743
G1 X117.218 Y116.292 E54.90666
G1 X116.618 Y116.292 E54.93837
G1 X116.292 Y116.618 E54.96274
G1 F6240
G1 X116.618 Y116.292 E54.79438
G1 F6240
G1 X117.218 Y116.292 E54.57528
G1 F6240
G1 X116.292 Y117.218 E54.09699
G1 F6240
G1 X116.292 Y117.817 E53.87789
G1 F6240
G1 X117.817 Y116.292 E53.08974
G1 F6240
G1 X118.417 Y116.292 E52.87064
G1 F6240
G1 X116.292 Y118.417 E51.77263
G1 F6240
G1 X116.292 Y119.017 E51.55353
G1 F6240
G1 X117.048 Y118.260 E51.16274
G1 E50.96274 F2400.00000
G92 E0
G1 Z1.200 F7800.000
G1 X133.964 Y133.964 F7800.000
G1 E4.00000 F2400.00000
G1 F3600
G1 X116.036 Y133.964 E4.93663
G1 X116.036 Y116.036 E5.87327
G1 X133.964 Y116.036 E6.80990
G1 X133.964 Y133.904 E7.74340
G1 X134.383 Y134.383 F7800.000
G1 F3600
G1 X115.617 Y134.383 E8.72380
G1 X115.617 Y115.617 E9.70420
G1 X134.383 Y115.617 E10.68460
G1 X134.383 Y134.323 E11.66187
G1 X134.780 Y134.780 F7800.000
G1 F1800
G1 X115.220 Y134.780 E12.57824
G1 X115.220 Y115.220 E13.49462
G1 X134.780 Y115.220 E14.41099
G1 X134.780 Y134.720 E15.32455
G1 X134.394 Y134.676 F7800.000
G1 X133.708 Y118.898 F7800.000
G1 F4800
G1 X131.102 Y116.292 E15.51711
G1 X128.140 Y116.292 E15.67186
G1 X133.708 Y121.860 E16.08326
G1 X133.708 Y124.822 E16.23801
G1 X125.178 Y116.292 E16.86826
G1 X122.216 Y116.292 E17.02300
G1 X133.708 Y127.784 E17.87209
G1 X133.708 Y130.746 E18.02684
G1 X119.254 Y116.292 E19.09477
G1 X116.292 Y116.292 E19.24951
G1 X133.708 Y133.708 E20.53629
G1 X130.746 Y133.708 E20.69104
G1 X116.292 Y119.254 E21.75897
G1 X116.292 Y122.216 E21.91371
G1 X127.784 Y133.708 E22.76280
G1 X124.822 Y133.708 E22.91755
G1 X116.292 Y125.178 E23.54780
G1 X116.292 Y128.140 E23.70254
G1 X121.860 Y133.708 E24.11395
G1 X118.898 Y133.708 E24.26869
G1 X116.292 Y131.102 E24.46125
G1 F6240
G1 X118.898 Y133.708 E23.11454
G1 F6240
G1 X121.860 Y133.708 E22.03230
G1 F6240
G1 X119.207 Y131.055 E20.66125
G1 E20.46125 F2400.00000
G92 E0
G1 Z1.500 F7800.000
G1 X133.964 Y133.964 F7800.000
G1 E4.00000 F2400.00000
G1 F3600
G1 X116.036 Y133.964 E4.93663
G1 X116.036 Y116.036 E5.87327
G1 X133.964 Y116.036 E6.80990
G1 X133.964 Y133.904 E7.74340
